X:347
T: Des Nachts beim hellen Mondenschein (4-46), S. 63
N: P0607
O: Lothringen
S: PINCK, Louis: Verklingende Weisen Bd 4, Kassel 1939]
R: Verfhrung]
M: 2/4
L: 1/8
K: E
E2 | B2B2=G2=c2 | B2A2=G2
GG | =c2B2A2=GG | =GFE2=D2
D2 | =G2G2AGA2 | B4z2
=c2 | B2E2=G2F2 | E4z2

@@@ Tune index: 7897
